64x64/apps/KoboDeluxe.svg

<svg xmlns="http://www.w3.org/2000/svg" width="64" height="64" version="1.1">
 <path style="opacity:0.2" d="m 32.032246,6.0051038 c -1.870794,-0.080544 -3.634392,0.797426 -4.570744,2.275444 L 4.1757326,45.032192 c -0.9055116,3.555952 1.78671,6.200932 5.813346,8.140482 7.5530094,3.638138 19.8011314,4.794254 21.8068334,4.824982 3.307078,0.07036 13.328492,-1.445434 20.483644,-4.288422 5.442446,-2.162474 9.226574,-5.092808 7.13621,-8.677042 L 36.129994,8.2805478 C 35.27817,6.9359344 33.734166,6.078563 32.032246,6.0051038 Z"/>
 <path style="fill:#8e8e8e" d="m 32.032246,5.0051034 c -1.870794,-0.080544 -3.634392,0.797426 -4.570744,2.275444 L 4.1757326,44.032192 c -0.9055116,3.555952 1.78671,6.200932 5.813346,8.140482 7.5530094,3.638138 19.8011314,4.794254 21.8068334,4.824982 3.307078,0.07036 13.328492,-1.445434 20.483644,-4.288422 5.442446,-2.162474 9.226574,-5.092808 7.13621,-8.677042 L 36.129994,7.2805474 C 35.27817,5.935934 33.734166,5.0785626 32.032246,5.0051034 Z"/>
 <path style="opacity:0.2" d="M 32.09375,6.0078124 C 30.233562,5.9440826 28.482758,6.8157942 27.550782,8.28125 L 24.074218,13.75 C 24.050272,14.008062 24,14.258194 24,14.523438 V 54.316406 C 24,58.579948 28.585002,60 32,60 c 3.415002,0 8,-1.420052 8,-5.683594 V 14.523438 c 0,-0.132492 -0.0168,-0.260101 -0.02344,-0.390626 L 36.253906,8.28125 C 35.490896,7.081462 34.164232,6.3029986 32.675782,6.0898438 32.480642,6.0642238 32.29353,6.0170318 32.09375,6.0078124 Z"/>
 <path style="fill:#686868" d="M 32.03125,5.0039062 C 30.160456,4.9233622 28.39729,5.803232 27.460938,7.28125 L 24,12.742188 V 53.316406 C 24,57.579948 28.585002,59 32,59 c 3.415002,0 8,-1.420052 8,-5.683594 V 13.390625 L 36.128906,7.28125 C 35.277082,5.9366366 33.73317,5.0773654 32.03125,5.0039062 Z"/>
 <rect style="opacity:0.2" width="6" height="34" x="12" y="24" rx="4.5" ry="4.25"/>
 <path style="opacity:0.1;fill:#f4f4f7" d="M 32.033203 5.0058594 C 30.162409 4.9253154 28.397289 5.803232 27.460938 7.28125 L 4.1757812 44.03125 C 4.0079845 44.690189 3.964415 45.318331 4.0292969 45.916016 C 4.0556851 45.627004 4.0988703 45.33328 4.1757812 45.03125 L 27.460938 8.28125 C 28.397289 6.803232 30.162409 5.9253154 32.033203 6.0058594 C 33.735123 6.0793186 35.279035 6.9366366 36.130859 8.28125 L 59.416016 45.03125 C 59.716846 45.547067 59.88306 46.048717 59.953125 46.537109 C 60.081487 45.7419 59.926188 44.906015 59.416016 44.03125 L 36.130859 7.28125 C 35.279035 5.9366366 33.735123 5.0793186 32.033203 5.0058594 z"/>
 <rect style="fill:#afafb1" width="6" height="34" x="12" y="23" rx="4.5" ry="4.25"/>
 <ellipse style="opacity:0.2" cx="32" cy="41.833" rx="7" ry="8.167"/>
 <ellipse style="fill:#64b0ff" cx="32" cy="40.833" rx="7" ry="8.167"/>
 <rect style="opacity:0.2" width="6" height="34" x="46" y="24" rx="4.5" ry="4.25"/>
 <rect style="fill:#afafb1" width="6" height="34" x="46" y="23" rx="4.5" ry="4.25"/>
 <path style="opacity:0.2;fill:#f4f4f7" d="M 32 32.666016 A 7 8.166667 0 0 0 25 40.833984 A 7 8.166667 0 0 0 25.017578 41.410156 A 7 8.166667 0 0 1 32 33.666016 A 7 8.166667 0 0 1 38.982422 41.251953 A 7 8.166667 0 0 0 39 40.833984 A 7 8.166667 0 0 0 32 32.666016 z"/>
 <path style="opacity:0.2;fill:#f4f4f7" d="M 15 23 C 13.338 23 12 24.8955 12 27.25 L 12 28.25 C 12 25.8955 13.338 24 15 24 C 16.662 24 18 25.8955 18 28.25 L 18 27.25 C 18 24.8955 16.662 23 15 23 z"/>
 <path style="opacity:0.2;fill:#f4f4f7" d="M 49 23 C 47.338 23 46 24.8955 46 27.25 L 46 28.25 C 46 25.8955 47.338 24 49 24 C 50.662 24 52 25.8955 52 28.25 L 52 27.25 C 52 24.8955 50.662 23 49 23 z"/>
</svg>

<svg xmlns="http://www.w3.org/2000/svg" width="64" height="64"><path style="opacity:.2" d="M32.032 6.005c-1.87-.08-3.634.798-4.57 2.276L4.176 45.032c-.906 3.556 1.786 6.201 5.813 8.14 7.553 3.639 19.801 4.795 21.807 4.826 3.307.07 13.328-1.446 20.484-4.289 5.442-2.162 9.226-5.093 7.136-8.677L36.13 8.281c-.852-1.345-2.396-2.202-4.098-2.276z"/><path style="fill:#8e8e8e" d="M32.032 5.005c-1.87-.08-3.634.798-4.57 2.276L4.176 44.032c-.906 3.556 1.786 6.201 5.813 8.14 7.553 3.639 19.801 4.795 21.807 4.826 3.307.07 13.328-1.446 20.484-4.289 5.442-2.162 9.226-5.093 7.136-8.677L36.13 7.281c-.852-1.345-2.396-2.202-4.098-2.276z"/><path style="opacity:.2" d="M32.094 6.008c-1.86-.064-3.611.808-4.543 2.273l-3.477 5.469c-.024.258-.074.508-.074.773v39.793C24 58.58 28.585 60 32 60s8-1.42 8-5.684V14.523c0-.132-.017-.26-.023-.39L36.254 8.28c-.763-1.2-2.09-1.978-3.578-2.191-.195-.026-.382-.073-.582-.082z"/><path style="fill:#686868" d="M32.031 5.004c-1.87-.08-3.634.8-4.57 2.277L24 12.742v40.574C24 57.58 28.585 59 32 59s8-1.42 8-5.684V13.391l-3.871-6.11c-.852-1.344-2.396-2.204-4.098-2.277z"/><rect style="opacity:.2" width="6" height="34" x="12" y="24" rx="4.5" ry="4.25"/><path style="opacity:.1;fill:#f4f4f7" d="M32.033 5.006c-1.87-.08-3.636.797-4.572 2.275L4.176 44.031a5.28 5.28 0 0 0-.147 1.885c.027-.289.07-.583.147-.885L27.46 8.281c.936-1.478 2.701-2.356 4.572-2.275 1.702.073 3.246.93 4.098 2.275l23.285 36.75c.3.516.467 1.018.537 1.506.128-.795-.027-1.631-.537-2.506L36.131 7.281c-.852-1.344-2.396-2.202-4.098-2.275z"/><rect style="fill:#afafb1" width="6" height="34" x="12" y="23" rx="4.5" ry="4.25"/><ellipse style="opacity:.2" cx="32" cy="41.833" rx="7" ry="8.167"/><ellipse style="fill:#64b0ff" cx="32" cy="40.833" rx="7" ry="8.167"/><rect style="opacity:.2" width="6" height="34" x="46" y="24" rx="4.5" ry="4.25"/><rect style="fill:#afafb1" width="6" height="34" x="46" y="23" rx="4.5" ry="4.25"/><path style="opacity:.2;fill:#f4f4f7" d="M32 32.666a7 8.167 0 0 0-7 8.168 7 8.167 0 0 0 .018.576A7 8.167 0 0 1 32 33.666a7 8.167 0 0 1 6.982 7.586 7 8.167 0 0 0 .018-.418 7 8.167 0 0 0-7-8.168zM15 23c-1.662 0-3 1.895-3 4.25v1c0-2.355 1.338-4.25 3-4.25s3 1.895 3 4.25v-1c0-2.355-1.338-4.25-3-4.25zM49 23c-1.662 0-3 1.895-3 4.25v1c0-2.355 1.338-4.25 3-4.25s3 1.895 3 4.25v-1c0-2.355-1.338-4.25-3-4.25z"/></svg>
